X:1
T: Drowsy Maggie
C: R-10
C: Irish Trad.
M: C|
Z:
R: reel
P: E Dorian
K: Edor
D| "Em"E2BE dEBE| E2BE "D"AFDF| "Em"E2BE dEBE| BABc "D"dAF :|
\
 A| "D"d2fd "A"c2ec| "D"defg afge| d2fd "A"c2ec| "Em"BABc "D"dAFA|
    "D"d2fd "A"c2ec| "D"defg afge| afge "A"fdec| "Em"BABc "D"dAF |] "Last time"x E8 |]
%
